svg/beer.svg

<svg height="1024" width="1024" xmlns="http://www.w3.org/2000/svg">
  <path d="M896 256H704V128C704 57.34400000000005 546.375 0 352 0S0 57.34400000000005 0 128v768c0 70.625 157.625 128 352 128s352-57.375 352-128V768h192c0 0 64 0 64-64V320C960 256 896 256 896 256zM192 832h-64V320h64V832zM384 896h-64V384h64V896zM576 832h-64V320h64V832zM352 192c-123.719 0-224-28.594-224-64 0-35.312 100.281-64 224-64s224 28.688 224 64C576 163.40599999999995 475.719 192 352 192zM832 640H704V384h128V640z" />
</svg>

<svg height="1024" width="1024" xmlns="http://www.w3.org/2000/svg">
  <path d="M896 256c-31 0-192 0-192 0v-128c0-71-158-128-352-128s-352 57-352 128v768c0 71 158 128 352 128s352-57 352-128v-128s160 0 192 0 64-30 64-64 0-350 0-384-29-64-64-64z m-704 576h-64v-512h64v512z m192 64h-64v-512h64v512z m192-64h-64v-512h64v512z m-224-640c-124 0-224-29-224-64s100-64 224-64 224 29 224 64-100 64-224 64z m480 448h-128v-256h128v256z" />
</svg>
